X:1
T:We Thank Thee, Our Father
T:We Thank Thee, Our Father
T:John Francis Wade (1711–1786)
T:Frances Jane (Fanny) Crosby, 1871, alt.
T:Public Domain Courtesy of the Cyber Hymnal™
C:John Francis Wade (1711–1786)
Z:Public Domain
Z:Courtesy of the Cyber Hymnal™
%%score ( 1 2 ) ( 3 4 )
L:1/8
Q:1/4=60
M:2/4
K:A
V:1 treble 
V:2 treble 
V:3 bass 
V:4 bass 
V:1
 [CA] | [CA]2 [CE][EA] | ([EB]2 E)E | (cB) [Ec][Fd] | (c2 B)[^DA] | [^DA]2 [EG][DF] | %6
w: 1.~We|thank Thee, our|Father, * For|all * we have|heard, * For|ev- ery sweet|
w: 2.~Dis-|miss us, we|pray, * O|Lord * with Thy|blessing, * From|thoughts that are|
 ([EG][^DA]) [EB][Ec] | [EG]2 [^DF]>E | E2 z E | [Ee]2 [Ed][Ec] | [Ed]2 [Ec][Ec] | (Bc) [EA][FB] | %12
w: prom- * ise Con-|tained in Thy|Word; And|O, with Thy|Spir- it To|com- * fort and|
w: sin- * ful, O|keep us this|day; Now|co- ver us|all with The|shade * of Thy|
 (G>F E) x | (AG) AB | A2 E[Ec] | ([Ec][EB]) [Ec][Ed] | ([Ec]2 [EB])[Ac] | d[Ac] [EB]A | %18
w: cheer, * *|How * oft we|have felt “It|is * good to|be * here,”|How oft we have|
w: wing, * *|While * still in|Thy pre- sence|This * chor- us|we * sing,|While still in Thy|
 [EG]2 [EA][Fd] | [Ec]2 [EB]>[CA] | !fermata![CA]3 |] %21
w: felt “It is|good to be|here.”|
w: pre- sence This|chor- us we|sing.|
V:2
 x | x4 | x2 EE | E2 x2 | E3 x | x4 | x4 | x7/2 E/ | E2 E x | x4 | x4 | E2 x2 | E2 A x | x4 | x4 | %15
 x4 | x4 | (F/G/ x3/2 E/^D/) x/ | x4 | x4 | x3 |] %21
V:3
 [A,,A,] | [A,,A,]2 [A,,A,][C,A,] | ([E,G,]2 [E,G,])[E,G,] | A,[G,B,] [C,A,][D,A,] | A,2 G,[F,B,] | %5
 [F,B,]2 [E,B,][B,,B,] | B,2 [G,B,][A,E] | (EB,) [B,,A,]>[E,G,] | [E,G,]2 z E, | %9
 [E,C]2 [E,B,][E,A,] | [E,B,]2 [E,A,][E,A,] | (G,A,) [C,C][D,B,] | (B,>A, G,) z | z4 | z3 A, | %15
 (A,G,) A,B, | (A,2 G,)[A,E] | ([B,D][A,E]) [G,B,][F,B,] | B,2 [C,A,][D,A,] | %19
 [E,A,]2 [E,G,]>[A,,A,] | !fermata![A,,A,]3 |] %21
V:4
 x | x4 | x4 | A, x3 | E,3 x | x4 | (E,F,) x2 | B,2 x2 | x3 E, | x4 | x4 | E,2 x2 | E,3 x | x4 | %14
 x4 | x4 | x4 | x4 | (E,D,) x2 | x4 | x3 |] %21

